Newaita/actions/22/edit-find-replace.svg

<svg height="22" viewBox="0 0 22 22" width="22" xmlns="http://www.w3.org/2000/svg"><g fill="#424242"><path d="m14.972656 13.875c-.371094.484375-.804687.914062-1.289062 1.285156l4.453125 4.453125c.179687.175781.464843.175781.644531 0l.640625-.644531c.179687-.175781.179687-.464844 0-.640625zm0 0"/><path d="m9.550781 1.992188c-3.816406 0-6.972656 2.738281-7.613281 6.367187h1.859375c.613281-2.613281 2.949219-4.550781 5.753906-4.550781 3.273438 0 5.914063 2.636718 5.914063 5.914062 0 3.121094-2.398438 5.664063-5.460938 5.894532v1.824218c4.070313-.234375 7.277344-3.589844 7.277344-7.71875 0-4.285156-3.445312-7.730468-7.730469-7.730468zm0 0"/><path d="m5.914062 15.179688h-1.820312v-4.535157c0-.253906.203125-.457031.453125-.457031h.910156c.253907 0 .457031.203125.457031.457031zm0 0"/><path d="m1.820312 14.726562h6.367188l-3.183594 4.546876zm0 0"/></g></svg>

<svg xmlns="http://www.w3.org/2000/svg" xmlns:xlink="http://www.w3.org/1999/xlink" width="22px" height="22px" viewBox="0 0 22 22" version="1.1">
<g id="surface1">
     <defs>
  <style id="current-color-scheme" type="text/css">
   .ColorScheme-Text { color:#424242; } .ColorScheme-Highlight { color:#eeeeee; }
  </style>
 </defs>
<path style="fill:currentColor" class="ColorScheme-Text" d="M 14.972656 13.875 C 14.601562 14.359375 14.167969 14.789062 13.683594 15.160156 L 18.136719 19.613281 C 18.316406 19.789062 18.601562 19.789062 18.78125 19.613281 L 19.421875 18.96875 C 19.601562 18.792969 19.601562 18.503906 19.421875 18.328125 Z M 14.972656 13.875 "/>
     <defs>
  <style id="current-color-scheme" type="text/css">
   .ColorScheme-Text { color:#424242; } .ColorScheme-Highlight { color:#eeeeee; }
  </style>
 </defs>
<path style="fill:currentColor" class="ColorScheme-Text" d="M 9.550781 1.992188 C 5.734375 1.992188 2.578125 4.730469 1.9375 8.359375 L 3.796875 8.359375 C 4.410156 5.746094 6.746094 3.808594 9.550781 3.808594 C 12.824219 3.808594 15.464844 6.445312 15.464844 9.722656 C 15.464844 12.84375 13.066406 15.386719 10.003906 15.617188 L 10.003906 17.441406 C 14.074219 17.207031 17.28125 13.851562 17.28125 9.722656 C 17.28125 5.4375 13.835938 1.992188 9.550781 1.992188 Z M 9.550781 1.992188 "/>
     <defs>
  <style id="current-color-scheme" type="text/css">
   .ColorScheme-Text { color:#424242; } .ColorScheme-Highlight { color:#eeeeee; }
  </style>
 </defs>
<path style="fill:currentColor" class="ColorScheme-Text" d="M 5.914062 15.179688 L 4.09375 15.179688 L 4.09375 10.644531 C 4.09375 10.390625 4.296875 10.1875 4.546875 10.1875 L 5.457031 10.1875 C 5.710938 10.1875 5.914062 10.390625 5.914062 10.644531 Z M 5.914062 15.179688 "/>
     <defs>
  <style id="current-color-scheme" type="text/css">
   .ColorScheme-Text { color:#424242; } .ColorScheme-Highlight { color:#eeeeee; }
  </style>
 </defs>
<path style="fill:currentColor" class="ColorScheme-Text" d="M 1.820312 14.726562 L 8.1875 14.726562 L 5.003906 19.273438 Z M 1.820312 14.726562 "/>
</g>
</svg>
